X:101
M:C
L:1/8
K:C
c2 (eg) (fe)"tr"(dc) | (d/e/f) Ad {c}B2 AG | c2 Ge d2 Gf | (e/f/g) fe [f}e2 d2 |
c2 (eg) (fe)"tr"(dc) | (d/e/f) Ad {c}B2 AG | c2 Ge d2 Gf | (e/f/g) GB c2 [C2c2] ||
c2 (eg) (fe)"tr"(dc) | (d/e/f) Ad {c}B2 AG | c2 Ge d2 Gf | (e/f/g) GB c2 [C2c2] |
(c'e)(c'e) (c'e)(fa) | (ge)(dc) (B/c/d) GF | E2 gE F2 af | (e/f/g) GB c2 [C2c2] |]

